packages/components/src/telekom/icons/weather/cloudy/selected.svg

<?xml version="1.0" encoding="UTF-8"?>
<svg width="24px" height="24px" viewBox="0 0 24 24" version="1.1" xmlns="http://www.w3.org/2000/svg" xmlns:xlink="http://www.w3.org/1999/xlink">
    <title>icon/weather/cloudy/selected</title>
    <g id="icon/weather/cloudy/selected" stroke="none" stroke-width="1" fill="none" fill-rule="evenodd">
        <path d="M10.4685,8.3 C12.8265,8.3 14.9095,9.7355 15.759,11.908 C17.1325,12.6725 18.001,14.1305 18.001,15.7175 C18.001,18.05225 16.1574247,19.9649654 13.8495477,20.0754584 L13.6385,20.0805 L4.8115,20.0805 C2.6,20.0805 0.801,18.282 0.801,16.07 C0.801,14.673 1.53,13.3885 2.698,12.6645 C2.886,10.838 4.434,9.409 6.3095,9.409 C6.539,9.409 6.77,9.433 7.006,9.483 C7.9985,8.717 9.2115,8.3 10.4685,8.3 Z M19.7475,12.9465 C19.9559444,12.7385 20.2789568,12.7153889 20.5128608,12.8771667 L20.596,12.9465 L21.445,13.795 C21.6795,14.029 21.6795,14.409 21.445,14.6435 C21.328,14.761 21.174,14.819 21.0205,14.819 C20.8977,14.819 20.7749,14.78156 20.670532,14.70668 L20.596,14.6435 L19.7475,13.795 C19.513,13.561 19.513,13.181 19.7475,12.9465 Z M16.601,6.8 C18.2555,6.8 19.601,8.1455 19.601,9.8 C19.601,10.9115 18.9915,11.88 18.091,12.3985 C17.7125,11.891 17.2515,11.442 16.712,11.084 C16.138,9.8405 15.2275,8.8295 14.1135,8.1365 C14.652,7.333 15.5635,6.8 16.601,6.8 Z M22.851,9.2 C23.182,9.2 23.451,9.4685 23.451,9.8 C23.451,10.09835 23.23311,10.34567 22.948233,10.3921505 L22.851,10.4 L21.651,10.4 C21.32,10.4 21.051,10.1315 21.051,9.8 C21.051,9.50165 21.26889,9.25433 21.553767,9.2078495 L21.651,9.2 L22.851,9.2 Z M11.758,4.9565 C11.966,4.7485 12.289358,4.72538889 12.5229931,4.88716667 L12.606,4.9565 L13.455,5.805 C13.6895,6.039 13.6895,6.419 13.455,6.6535 C13.338,6.771 13.184,6.829 13.0305,6.829 C12.9077,6.829 12.7849,6.79156 12.680532,6.71668 L12.606,6.6535 L11.758,5.805 C11.5235,5.571 11.5235,5.1905 11.758,4.9565 Z M20.5965,4.9565 C20.831,4.7225 21.2105,4.722 21.445,4.9565 C21.6534444,5.16494444 21.6766049,5.48835185 21.5144815,5.72199246 L21.445,5.805 L20.596,6.6535 C20.479,6.771 20.3255,6.829 20.172,6.829 C20.018,6.829 19.8645,6.7705 19.748,6.6535 C19.5395556,6.44505556 19.5163951,6.12164815 19.6785185,5.88800754 L19.748,5.805 L20.5965,4.9565 Z M16.601,2.95 C16.8989,2.95 17.14658,3.167485 17.193137,3.4526455 L17.201,3.55 L17.201,4.75 C17.201,5.0815 16.932,5.35 16.601,5.35 C16.3031,5.35 16.05542,5.132515 16.008863,4.8473545 L16.001,4.75 L16.001,3.55 C16.001,3.2185 16.27,2.95 16.601,2.95 Z" id="Shape" fill="#262626"></path>
    </g>
</svg>

<svg width="24" height="24" xmlns="http://www.w3.org/2000/svg"><path d="M10.469 8.3a5.664 5.664 0 015.29 3.608 4.368 4.368 0 012.242 3.81 4.368 4.368 0 01-4.151 4.357l-.211.006H4.81a4.015 4.015 0 01-4.01-4.011 4.01 4.01 0 011.897-3.405 3.635 3.635 0 013.611-3.256c.23 0 .461.024.697.074A5.659 5.659 0 0110.469 8.3zm9.278 4.646a.6.6 0 01.766-.069l.083.07.849.848a.6.6 0 01-.774.912l-.075-.064-.849-.848a.6.6 0 010-.848zM16.601 6.8c1.655 0 3 1.346 3 3 0 1.111-.61 2.08-1.51 2.598a5.558 5.558 0 00-1.379-1.314 6.835 6.835 0 00-2.598-2.947A2.992 2.992 0 0116.6 6.8zm6.25 2.4a.6.6 0 01.097 1.192l-.097.008h-1.2a.6.6 0 01-.097-1.192l.097-.008h1.2zM11.758 4.957a.6.6 0 01.765-.07l.083.07.849.848a.6.6 0 01-.774.912l-.075-.063-.848-.849a.6.6 0 010-.848zm8.838 0a.6.6 0 01.918.765l-.069.083-.849.849a.596.596 0 01-.848 0 .6.6 0 01-.07-.766l.07-.083.848-.848zM16.601 2.95a.6.6 0 01.592.503l.008.097v1.2a.6.6 0 01-1.192.097L16 4.75v-1.2a.6.6 0 01.6-.6z" fill="#000" fill-rule="evenodd"/></svg>
